X:1
T:Excelsior -- Hornpipe
R:hornpipe
B:Cole's 1000 Fiddle Tunes
Z:Bob Puckette <bpuckette:msn.com> 2003-3-8
M:2/4
L:1/16
K:A
vA,CEC A,AcA|EGBG Acec|dfdB cecA|((3BcB) ((3"4"AGF) ((3EFE) ((3DCB,)|
A,CEC A,AcA|EGBG Acec|dfBd Acec|dfBf GBEG|A2c2A2z2:|
|:vceae cefe|ceae dcBA|agae fgae|((3gba) ((3gfe) ((3efe) ((3dcB)|
ceae cefe|ceae dcBA|agae fdBG|A2c2A2z2:|
